Simply-Cyan-Circles/scalable/apps/brackets-electron.svg

<svg xmlns="http://www.w3.org/2000/svg" width="48" height="48" viewBox="0 0 12.7 12.7"><defs><linearGradient id="a"><stop offset="0" stop-color="#fff"/><stop offset="1" stop-color="#7cafec"/></linearGradient><linearGradient id="b"><stop stop-color="#2579b0"/><stop offset="1" stop-color="#7cbfec"/></linearGradient><linearGradient id="c"><stop offset="0" stop-color="#2e3436"/><stop offset="1" stop-color="#555753"/></linearGradient><linearGradient id="d"><stop offset="0" stop-color="#1064d3"/><stop offset="1" stop-color="#14c6fd"/></linearGradient></defs><path d="M6.34.07a6.29 6.29 0 0 0-6.29 6.3 6.29 6.29 0 0 0 6.3 6.28 6.29 6.29 0 0 0 6.28-6.29A6.29 6.29 0 0 0 6.34.07zm-.01.94a5.4 5.4 0 0 1 5.4 5.4 5.4 5.4 0 0 1-5.4 5.41 5.4 5.4 0 0 1-5.41-5.4A5.4 5.4 0 0 1 6.32 1zM4.3 4.3V8.4h1.85v-.93h-.92V5.24h.92V4.3H4.32zm2.23 0v.93h.92v2.22h-.92v.93H8.38V4.3H6.55z" fill="#5beedc"/><path d="M6.35 1.65a4.7 4.7 0 0 0-4.7 4.7 4.7 4.7 0 0 0 4.7 4.7 4.7 4.7 0 0 0 4.7-4.7 4.7 4.7 0 0 0-4.7-4.7zm-.01.88a3.86 3.86 0 0 1 3.86 3.86 3.86 3.86 0 0 1-3.86 3.86 3.86 3.86 0 0 1-3.86-3.86 3.86 3.86 0 0 1 3.86-3.86z" fill="red" opacity=".75"/></svg>

<?xml version="1.0" encoding="UTF-8" standalone="no"?>
<svg
   xmlns:dc="http://purl.org/dc/elements/1.1/"
   xmlns:cc="http://creativecommons.org/ns#"
   xmlns:rdf="http://www.w3.org/1999/02/22-rdf-syntax-ns#"
   xmlns:svg="http://www.w3.org/2000/svg"
   xmlns="http://www.w3.org/2000/svg"
   xmlns:sodipodi="http://sodipodi.sourceforge.net/DTD/sodipodi-0.dtd"
   xmlns:inkscape="http://www.inkscape.org/namespaces/inkscape"
   width="48"
   height="48"
   viewBox="0 0 12.7 12.7"
   version="1.1"
   id="svg28"
   sodipodi:docname="brackets-electron.svg"
   inkscape:version="0.92.4 (5da689c313, 2019-01-14)">
  <metadata
     id="metadata32">
    <rdf:RDF>
      <cc:Work
         rdf:about="">
        <dc:format>image/svg+xml</dc:format>
        <dc:type
           rdf:resource="http://purl.org/dc/dcmitype/StillImage" />
        <dc:title></dc:title>
      </cc:Work>
    </rdf:RDF>
  </metadata>
  <sodipodi:namedview
     pagecolor="#ffffff"
     bordercolor="#666666"
     borderopacity="1"
     objecttolerance="10"
     gridtolerance="10"
     guidetolerance="10"
     inkscape:pageopacity="0"
     inkscape:pageshadow="2"
     inkscape:window-width="1087"
     inkscape:window-height="480"
     id="namedview30"
     showgrid="false"
     inkscape:zoom="4.9166667"
     inkscape:cx="2.1355932"
     inkscape:cy="24"
     inkscape:window-x="0"
     inkscape:window-y="25"
     inkscape:window-maximized="0"
     inkscape:current-layer="svg28" />
  <defs
     id="defs22">
    <linearGradient
       id="a">
      <stop
         offset="0"
         stop-color="#fff"
         id="stop2" />
      <stop
         offset="1"
         stop-color="#7cafec"
         id="stop4" />
    </linearGradient>
    <linearGradient
       id="b">
      <stop
         stop-color="#2579b0"
         id="stop7" />
      <stop
         offset="1"
         stop-color="#7cbfec"
         id="stop9" />
    </linearGradient>
    <linearGradient
       id="c">
      <stop
         offset="0"
         stop-color="#2e3436"
         id="stop12" />
      <stop
         offset="1"
         stop-color="#555753"
         id="stop14" />
    </linearGradient>
    <linearGradient
       id="d">
      <stop
         offset="0"
         stop-color="#1064d3"
         id="stop17" />
      <stop
         offset="1"
         stop-color="#14c6fd"
         id="stop19" />
    </linearGradient>
  </defs>
  <path
     d="M 6.34,0.07 A 6.29,6.29 0 0 0 0.05,6.37 6.29,6.29 0 0 0 6.35,12.65 6.29,6.29 0 0 0 12.63,6.36 6.29,6.29 0 0 0 6.34,0.07 Z M 6.33,1.01 a 5.4,5.4 0 0 1 5.4,5.4 5.4,5.4 0 0 1 -5.4,5.41 A 5.4,5.4 0 0 1 0.92,6.42 5.4,5.4 0 0 1 6.32,1 Z M 4.3,4.3 V 8.4 H 6.15 V 7.47 H 5.23 V 5.24 H 6.15 V 4.3 H 4.32 Z m 2.23,0 V 5.23 H 7.45 V 7.45 H 6.53 V 8.38 H 8.38 V 4.3 H 6.55 Z"
     id="path24"
     inkscape:connector-curvature="0"
     style="fill:#5beedc" />
  <path
     d="m 6.35,1.65 a 4.7,4.7 0 0 0 -4.7,4.7 4.7,4.7 0 0 0 4.7,4.7 4.7,4.7 0 0 0 4.7,-4.7 4.7,4.7 0 0 0 -4.7,-4.7 z M 6.34,2.53 A 3.86,3.86 0 0 1 10.2,6.39 3.86,3.86 0 0 1 6.34,10.25 3.86,3.86 0 0 1 2.48,6.39 3.86,3.86 0 0 1 6.34,2.53 Z"
     id="path26"
     inkscape:connector-curvature="0"
     style="opacity:0.75;fill:#ff0000" />
</svg>
